X:3
T:Princess Royal
C:Turlough O'Carolan
M:4/4
K:G
z6BA|"Em"G2F2E2BA|G2F2E2B2|"Am"c3B"D"A2dc|"G"BcBAG2B2|
"D"ABAGFGFE|"G"DEDCB,2BA|"C"G2FE"G"GFED|[1"Em"E4z2BA:|
[2"Em"E4z2B2||"C"e3de2f2|"G"g6zg|"Em"gfed "D"cBAG|"C"FGAF"G"D2EF|
"C"G2FG"D"A2GA|"Em"B2B2"C"e4|"Bm"d4"Am"c2dc|"G"B4"D"A2BA|"Em"AGGF "D"EGFE|
"C"DEDC"G"B,2BA|"C"G2FE "G"GFED|1E4z2B2:|2E6z2|]
